X: 1
P: Dr. Boyd's Jig
C: from Doug Muir Collection
C: As played by Raymond Ellis
C: arr. T. Traub 12-24-96
M: 6/8
R: jig
K: Bb
|: dc|"Bb"BcB FDF|"Bb"Bdg f2 d|"Cm"ege "Eb"G2 B|"F"AcA "F7"FGA|"Bb"BcB FDF|"Bb"Bdg "Bb/D"f2 d|"F7"ecA FAc|"Bb"B3 "(Bb7)"B :|
|: "Eb"g2 g "F7"gfe|"Bb"fgf f2 d|"Cm"e2 e "F7"edc|"Bb"f2 d "Bb7"B3|"Eb"g2 g "F7"gfe |"Bb"fgf f2 d|"F7"ecA FAc|"Bb"B3 "(Bb7)"B2 :|
